icons/arrow-right.svg

<svg width="18" height="18" viewBox="0 0 18 18" fill="none" xmlns="http://www.w3.org/2000/svg">
<g clip-path="url(#clip0_50_1972)">
<path d="M10.5501 2.75L9.90331 3.48167L15.5923 8.51061H0.666748V9.48717H15.5923L9.90331 14.5161L10.5501 15.2478L17.3334 9.25153V8.74626L10.5501 2.75Z" fill="white"/>
</g>
<defs>
<clipPath id="clip0_50_1972">
<rect width="16.6667" height="16.6667" fill="white" transform="translate(0.666626 0.666016)"/>
</clipPath>
</defs>
</svg>

<svg xmlns="http://www.w3.org/2000/svg" width="18" height="18" fill="none" viewBox="0 0 18 18"><g clip-path="url(#a)"><path fill="#fff" d="m10.55 2.75-.647.732 5.69 5.029H.666v.976h14.925l-5.689 5.03.647.73 6.783-5.995v-.506z"/></g><defs><clipPath id="a"><path fill="#fff" d="M.667.666h16.667v16.667H.667z"/></clipPath></defs></svg>
